!!!!SEGMENT: pl-kk--kk-i-109--002_pekiel-bartlomiej--missa-paschalis-et-in-terra.krn
!!!id: 16xx:1114
!!!COM: Pękiel, Bartłomiej
!!!COM-rism: pe30105642
!!!CDT: <1633-~1670
!!!CNT: Polish
!!!OTL: Missa Paschalis – Et in terra
!!!PDT:
!!!SMS-siglum: PL-Kk
!!!SMS-shelfmark: Kk.I.109
!!!NIFC-rismID: 1001145405
!!!URL-scan: http://repozytorium.nifc.pl/skany/pl-kk-nut--i-109
!!!ONB-nifc: UWAGA: części Mszy: 1. Kyrie, 2. Et in terra, 3. Patrem, 4. Sanctus, 5. Agnus Dei
!!!SMS-variant:
!!!SMS-altvar:
**kern	**fba	**text	**kern	**text	**kern	**text	**kern	**text	**kern	**text
*part5	*	*part5	*part4	*part4	*part3	*part3	*part2	*part2	*part1	*part1
*staff5	*	*staff5	*staff4	*staff4	*staff3	*staff3	*staff2	*staff2	*staff1	*staff1
*I"Baßo.	*	*	*I"Baßo.	*	*I"Tenore 2	*	*I"Tenor 1	*	*I"Alto.	*
*I'B	*	*	*I'B	*	*I'T 2	*	*I'T 1	*	*I'A	*
*clefF4	*	*	*clefF4	*	*clefC4	*	*clefC4	*	*clefC3	*
*k[]	*	*	*k[]	*	*k[]	*	*k[]	*	*k[]	*
*M2/1	*	*	*M2/1	*	*M2/1	*	*M2/1	*	*M2/1	*
*met(c)	*	*	*met(c)	*	*met(c)	*	*met(c)	*	*met(c)	*
=1	=1	=1	=1	=1	=1	=1	=1	=1	=1	=1
*	*	*	*	*	*all\right	*	*all\right	*	*	*
!LO:N:vis=2	!	!	!	!	!	!	!	!	!	!
4.D/,<	.	ET	4.D/	Et	2A/	ET	4.f\	Et	2d\	ET
!LO:N:vis=2	!	!	!	!	!	!	!	!	!	!
8D/	.	in	8D/	in	.	.	8f\	in	.	.
!	!	!	!	!	!LO:TX:t=P:problem:kreska pseudotaktowa	!	!	!	!LO:TX:t=P:problem:kreska pseudotaktowa	!
4C#X/	.	ter-	4C#X/	ter-	2A/	in	8e\L	ter-	2a\	in
.	.	.	.	.	.	.	8d\	.	.	.
!	!	!	!	!	!	!	!LO:TX:t=P:problem:# above	!	!	!
2AA/	.	-ra	2AA/	-ra	.	.	8c#X\	.	.	.
!	!	!	!	!	!	!	!LO:TX:t=P:problem:kreska pseudotaktowa	!	!	!
.	.	.	.	.	.	.	8B\J	.	.	.
!	!	!	!	!	!	!	!LO:TX:t=P:problem:# above	!	!	!
.	.	.	.	.	4.A/	ter-	8c#X\L	.	2e\	ter-
.	.	.	.	.	.	.	8B\	.	.	.
4A\	.	pax	8.A\	pax	.	.	8c#\J	.	.	.
.	.	.	.	.	8A/	-ra	8d\	-ra	.	.
.	.	.	16A\	.	.	.	.	.	.	.
!	!	!	!	!	!	!	!	!	!LO:TX:t=P:problem:kreska pseudotaktowa	!
4E\	.	ho-	4E\	ho-	4B\	pax	2.e\	Pax	2g\	-ra
!LO:TX:t=P:problem:kreska pseudotaktowa	!	!	!LO:TX:t=P:problem:kreska pseudotaktowa	!	!LO:TX:t=P:problem:kreska pseudotaktowa	!	!	!	!	!
4Cny/	.	-mi-	4Cny/	-mi-	4c\	ho-	.	.	.	.
=2-	=2-	=2-	=2-	=2-	=2-	=2-	=2-	=2-	=2-	=2-
8D/L	.	.	8D/L	.	4A/	-mi-	.	.	4.f\	pax
8C/	.	.	8C/	.	.	.	.	.	.	.
8BB-X/	.	.	8BB-X/	.	2B-X\	-ni-	4d\	ho-	.	.
8AA/J	.	.	8AA/J	.	.	.	.	.	8f\	ho-
4GG/	.	.	4GG/	.	.	.	4.d\	-mi-	4.e\	-mi-
!	!	!	!	!	!LO:TX:t=P:problem:kreska pseudotaktowa	!	!	!	!	!
4AA/	.	-ni-	8.AA/	.	4A/	.	.	.	.	.
!	!	!	!	!	!	!	!LO:TX:t=P:problem:# above	!	!	!
!	!	!	!	!	!	!	!LO:TX:t=P:problem:kreska pseudotaktowa	!	!LO:TX:t=P:problem:kreska pseudotaktowa	!
.	.	.	.	.	.	.	8c#X\	-ni-	8e\	-ni-
.	.	.	16AA/	-ni-	.	.	.	.	.	.
1D\	.	-bus	1D\	-bus	1A\	-bus	1d\	-bus	1f#X\	-bus
=3-	=3-	=3-	=3-	=3-	=3-	=3-	=3-	=3-	=3-	=3-
*M3/1	*	*	*M3/1	*	*M3/1	*	*M3/1	*	*M3/1	*
0D\	.	bo-	0D\	bo-	0A\	Bo-	0d\	Bo-	0f#X\	bo-
!	!	!	!LO:SIC:a:v:custos:AA	!	!	!	!	!	!LO:TX:t=P:problem:# above	!
!LO:TX:t=P:problem:kreska pseudotaktowa	!	!	!LO:TX:t=P:problem:kreska pseudotaktowa	!	!LO:TX:t=P:problem:kreska pseudotaktowa	!	!LO:TX:t=P:problem:kreska pseudotaktowa	!	!LO:TX:t=P:problem:kreska pseudotaktowa	!
1BBny/	6|	-nae	1BBny/	-nae	1Bn\	-nae	1d\	-nae	1g#X\	-nae
=4-	=4-	=4-	=4-	=4-	=4-	=4-	=4-	=4-	=4-	=4-
!LO:LB:g=original	!	!	!LO:LB:g=original	!	!	!	!LO:TX:t=P:problem:kreska pseudotaktowa	!	!	!
2AA/	.	vo-	2AA/	Vo-	0c\	Vo-	0.e\	Vo-	2a\	Vo-
2BB/	.	.	2BB/	.	.	.	.	.	4gny\	.
.	.	.	.	.	.	.	.	.	4fny\	.
2C/	.	.	2C/	.	.	.	.	.	2e\	.
!	!	!	!	!	!	!	!	!	!LO:SIC:a:v:custos:g	!
2D/	.	.	2D/	.	.	.	.	.	2f\	.
!	!	!	!	!	!	!	!	!	!LO:LB:g=original	!
!LO:TX:t=P:problem:kreska pseudotaktowa	!	!	!	!	!LO:TX:t=P:problem:kreska pseudotaktowa	!	!	!	!LO:TX:t=P:problem:kreska pseudotaktowa	!
1E\	.	-lun-	2.E\	.	1B\	-lun-	.	.	1g\	.
!	!	!	!LO:TX:t=P:problem:kreska pseudotaktowa	!	!	!	!	!	!	!
.	.	.	4E\	-lun-	.	.	.	.	.	.
=5-	=5-	=5-	=5-	=5-	=5-	=5-	=5-	=5-	=5-	=5-
*	*	*	*lig	*	*	*	*	*	*	*
1F\	.	-ta-	1F\	-ta-	0A\	-ta-	1cny\	-lun-	1f\	-lun-
*	*	*	*	*	*	*	*lig	*	*lig	*
1D\	.	.	1D\	.	.	.	1d\	-ta-	1f\	-ta-
*	*	*	*Xlig	*	*	*	*	*	*	*
!	!	!	!	!	!LO:TX:t=P:problem:# below	!	!	!	!	!
!	!	!	!	!	!LO:SIC:a:v:custos:A	!	!LO:SIC:a:v:custos:c	!	!	!
!	!	!	!	!	!LO:TX:t=P:problem:kreska pseudotaktowa	!	!LO:TX:t=P:problem:kreska pseudotaktowa	!	!	!
1E\	#	.	1E\	.	1G#X/	.	1B\	.	1e\	.
*	*	*	*	*	*	*	*Xlig	*	*Xlig	*
=6-	=6-	=6-	=6-	=6-	=6-	=6-	=6-	=6-	=6-	=6-
*M2/1	*	*	*M2/1	*	*M2/1	*	*M2/1	*	*M2/1	*
*met(c)	*	*	*met(c)	*	*met(c)	*	*met(c)	*	*met(c)	*
!LO:TX:t=P:problem:Tekst w źródle podpisany orientacyjnie	!	!	!	!	!LO:LB:g=original	!	!LO:LB:g=original	!	!	!
2AA/	.	-tis	4AA/	-tis	2A,</	-tis	2c,<\	-tis	2e\	-tis
.	.	.	4A\	lau-	.	.	.	.	.	.
!LO:TX:t=P:problem:kreska pseudotaktowa	!	!	!	!	!LO:TX:t=P:problem:kreska pseudotaktowa	!	!LO:TX:t=P:problem:kreska pseudotaktowa	!	!LO:TX:t=P:problem:kreska pseudotaktowa	!
2FF#X/	.	L.	4.F#X\	-da-	2d\	lau-	2A/	Lau-	2r	.
!	!	!	!LO:TX:t=P:problem:kreska pseudotaktowa	!	!	!	!	!	!	!
.	.	.	8F#\	-m(us)	.	.	.	.	.	.
2GG/	.	te	4G\	te	4B\	-da-	4.G/	-da-	4r	.
.	.	.	8.G\	be-	8B\	-mus	.	.	8.g\	Be-
.	.	.	.	.	8B\	lau-	8d\	mus	.	.
.	.	.-	16G\	-ne-	.	.	.	.	16g\	-ne-
!LO:TX:t=P:problem:kreska pseudotaktowa	!	!	!	!	!	!	!	!	!	!
2C/	.	bened.	4C/	-di-	4c\	-da-	4c,<\	te	4e\	-di-
!	!	!	!	!	!LO:TX:t=P:problem:kreska pseudotaktowa	!	!	!	!	!
.	.	.	8C/	-ci-	4Gny/	-mus	8.c\	Be-	8e\	-ci-
!	!	!	!LO:TX:t=P:problem:kreska pseudotaktowa	!	!	!	!	!	!LO:TX:t=P:problem:kreska pseudotaktowa	!
.	.	.	8C/	-m(us)	.	.	.	.	8e\	-m(us)
!	!	!	!	!	!	!	!LO:TX:t=P:problem:kreska pseudotaktowa	!	!	!
.	.	.	.	.	.	.	16c\	-ne-	.	.
=7-	=7-	=7-	=7-	=7-	=7-	=7-	=7-	=7-	=7-	=7-
!LO:LB:g=original	!	!	!	!	!	!	!	!	!	!
2Fny\	.	Te	4Fny\	te	4A,</	te	4.B\	-di-	4f\	te
.	.	.	8.F\	a-	8.A/	a-	.	.	8.f\	a-
.	.	.	.	.	.	.	8B\	-ci-	.	.
.	.	.	16F\	-do-	16A/	-do-	.	.	16f\	-do-
4.C/	.	adora-	4.C/	-ra-	4.G/	-ra-	4.B,<\	-mus	4.e\	-ra-
!LO:TX:t=P:problem:kreska pseudotaktowa	!	!	!LO:TX:t=P:problem:kreska pseudotaktowa	!	!LO:TX:t=P:problem:kreska pseudotaktowa	!	!LO:TX:t=P:problem:kreska pseudotaktowa	!	!LO:TX:t=P:problem:kreska pseudotaktowa	!
8D/	.	-m(us)	8D/	-m(us)	8F/	-mus	8A/	te	8d\	-mus
2AA/	.	te	4AA/	te	2E/	te	4A/	A-	4c#X/	te
!	!	!	!	!	!	!	!LO:TX:t=P:problem:# above	!	!	!
.	.	.	4AA/	glo-	.	.	4c#X\	-do-	4e\	glo-
!LO:TX:t=P:problem:kreska pseudotaktowa	!	!	!	!	!	!	!	!	!	!
2FF#X/	.	glori-	4.FF#X/	-ri-	4r	.	4d\	-ra	4.a\	-ri-
!	!	!	!	!	!LO:TX:t=P:problem:kreska pseudotaktowa	!	!	!	!	!
.	.	.	.	.	4A/	glo-	8d\	mus	.	.
!	!	!	!LO:TX:t=P:problem:kreska pseudotaktowa	!	!	!	!LO:TX:t=P:problem:kreska pseudotaktowa	!	!LO:TX:t=P:problem:kreska pseudotaktowa	!
.	.	.	8FF#/	-fi-	.	.	8d\	[te]	8a\	-fi-
=8-	=8-	=8-	=8-	=8-	=8-	=8-	=8-	=8-	=8-	=8-
4AA/	.	-fi-	4AA/	-ca-	2.A/	-ri-	2cny\	Glo-	2e\	-ca-
4.A\	.	-ca-	4.A\	.	.	.	.	.	.	.
.	.	.	.	.	.	.	8c\	-ri-	8e\L	.
16G\LL	.	.	16G\LL	.	.	.	8d\	-fi-	8f\	.
16F\JJ	.	.	16F\JJ	.	.	.	.	.	.	.
!	!	!	!LO:SIC:a:v:custos:F	!	!	!	!	!	!	!
!LO:TX:t=P:problem:kreska pseudotaktowa	!	!	!	!	!LO:TX:t=P:problem:kreska pseudotaktowa	!	!	!	!	!
4E\	.	.	4E\	.	4B\	-fi-	2e\	-ca-	8g\	.
.	.	.	.	.	.	.	.	.	16a\L	.
!	!	!	!	!	!	!	!	!	!LO:TX:t=P:problem:kreska pseudotaktowa	!
.	.	.	.	.	.	.	.	.	16g\JJ	.
!LO:LB:g=original	!	!	!LO:LB:g=original	!	!	!	!	!	!	!
4.F\	.	.	4.F\	.	2.A/	-ca-	.	.	2f\	.
.	.	.	.	.	.	.	2d\	-mus	.	.
8G\	.	.	8G\	.	.	.	.	.	.	.
4A\	.	.	4A\	.	.	.	.	.	4.e\	.
!LO:TX:t=P:problem:kreska pseudotaktowa	!	!	!LO:TX:t=P:problem:kreska pseudotaktowa	!	!	!	!LO:TX:t=P:problem:# above	!	!	!
!	!	!	!	!	!	!	!LO:TX:t=P:problem:kreska pseudotaktowa	!	!	!
4AA/	.	-m(us)	4AA/	-mus	4A/	-mus	4c#X\	.	.	.
.	.	.	.	.	.	.	.	.	8e\	-mus
=9-	=9-	=9-	=9-	=9-	=9-	=9-	=9-	=9-	=9-	=9-
!LO:TX:t=P:problem:kreska pseudotaktowa	!	!	!LO:TX:t=P:problem:kreska pseudotaktowa	!	!LO:SIC:a:v:custos:A	!	!	!	!LO:SIC:a:v:custos:f	!
!	!	!	!	!	!LO:TX:t=P:problem:kreska pseudotaktowa	!	!LO:TX:t=P:problem:kreska pseudotaktowa	!	!LO:TX:t=P:problem:kreska pseudotaktowa	!
1D\	.	Te	1D\	te	1A\	te	1d\	te	1f#X\	te
=10-	=10-	=10||	=10-	=10||	=10-	=10||	=10||	=10||	=10||	=10||
*M3/1	*	*	*M3/1	*	*M3/1	*	*M3/1	*	*M3/1	*
!	!	!	!	!	!LO:LB:g=original	!	!	!	!LO:LB:g=original	!
0D\	.	Gra-	1.D\	Gra-	1.A\	Gra-	1.d\	Gra-	1.f#X\	Gra-
.	.	.	2D/	-ti-	2A\	-ti-	2d\	-ti-	2f#\	-ti-
!LO:TX:t=P:problem:kreska pseudotaktowa	!	!	!LO:TX:t=P:problem:kreska pseudotaktowa	!	!LO:TX:t=P:problem:kreska pseudotaktowa	!	!LO:SIC:a:v:custos:e	!	!	!
!	!	!	!	!	!	!	!LO:TX:t=P:problem:kreska pseudotaktowa	!	!LO:TX:t=P:problem:kreska pseudotaktowa	!
1BB/	.	-ti-	1BB/	-as	1Bn\	-as	1d\	-as	1g#X\	-as
=11-	=11-	=11-	=11-	=11-	=11-	=11-	=11-	=11-	=11-	=11-
!	!	!	!	!	!	!	!LO:LB:g=original	!	!	!
0AA/	.	-as	0AA/	a-	0c\	a-	0e\	a-	0a\	a-
!LO:TX:t=P:problem:kreska pseudotaktowa	!	!	!LO:TX:t=P:problem:kreska pseudotaktowa	!	!LO:TX:t=P:problem:kreska pseudotaktowa	!	!LO:TX:t=P:problem:kreska pseudotaktowa	!	!LO:TX:t=P:problem:kreska pseudotaktowa	!
1E\	.	a-	1E\	-gi-	1B\	-gi-	1e\	-gi-	1g#X\	-gi-
=12-	=12-	=12-	=12-	=12-	=12-	=12-	=12-	=12-	=12-	=12-
1F\	.	-gi-	1F\	-mus	1A\	-mus	1c\	-mus	1a\	-mus
*	*	*	*lig	*	*	*	*lig	*	*lig	*
1D\	.	-mus	1D\	ti-	2d\	ti-	1f\	.	1a\	ti-
.	.	.	.	.	2c\	.	.	.	.	.
!	!	!	!	!	!LO:TX:t=P:problem:kreska pseudotaktowa	!	!LO:TX:t=P:problem:kreska pseudotaktowa	!	!LO:TX:t=P:problem:# below	!
!LO:TX:t=P:problem:kreska pseudotaktowa	!	!	!	!	!	!	!	!	!LO:TX:t=P:problem:kreska pseudotaktowa	!
1E\	.	Ti-	1E\	.	1B\	.	1e\	.	1g#X\	.
*	*	*	*Xlig	*	*	*	*Xlig	*	*Xlig	*
=13-	=13-	=13-	=13-	=13-	=13-	=13-	=13-	=13-	=13-	=13-
!LO:TX:t=P:problem:kreska pseudotaktowa	!	!	!LO:TX:t=P:problem:kreska pseudotaktowa	!	!LO:TX:t=P:problem:kreska pseudotaktowa	!	!LO:TX:t=P:problem:kreska pseudotaktowa	!	!LO:TX:t=P:problem:kreska pseudotaktowa	!
0.AA/	.	-bi	0.AA/	-bi	0.cn\	-bi	0.e\	ti-	0.a\	-bi
=14-	=14-	=14-	=14-	=14-	=14-	=14-	=14-	=14-	=14-	=14-
0AA\	.	pr.	1.A\	p(ro)p-	1.c\	prop-	1.e\	-bi	1.a\	prop-
.	.	.	2A\	-(ter)	2c\	-ter	2e\	prop-	2a\	-ter
!LO:TX:t=P:problem:kreska pseudotaktowa	!	!	!	!	!	!	!	!	!	!
1E\	.	m.	2E\	ma-	2.B\	ma-	2e\	-ter	2.gny\	ma-
!	!	!	!LO:TX:t=P:problem:kreska pseudotaktowa	!	!	!	!LO:TX:t=P:problem:kreska pseudotaktowa	!	!	!
.	.	.	2E\	-gna(m)	.	.	2e\	.	.	.
!	!	!	!	!	!LO:TX:t=P:problem:kreska pseudotaktowa	!	!	!	!LO:TX:t=P:problem:kreska pseudotaktowa	!
.	.	.	.	.	4B\	-gna(m)	.	.	4g\	-gna(m)
=15-	=15-	=15-	=15-	=15-	=15-	=15-	=15-	=15-	=15-	=15-
0F\	.	gl.	1.F\	glo-	1.A\	glo-	1.c\	mag-	1.fny\	glo-
.	.	.	2F\	-ri-	2A\	-ri-	2c\	-nam	2f\	-ri-
!LO:SIC:v:t=custos FF	!	!	!	!	!	!	!	!	!	!
!LO:TX:t=P:problem:kreska pseudotaktowa	!	!	!LO:TX:t=P:problem:kreska pseudotaktowa	!	!LO:TX:t=P:problem:kreska pseudotaktowa	!	!LO:TX:t=P:problem:kreska pseudotaktowa	!	!LO:TX:t=P:problem:kreska pseudotaktowa	!
1C/	.	.	1C/	-am	1G/,<	-a(m)	1c\,	.	1e\	-a(m)
=16-	=16-	=16-	=16-	=16-	=16-	=16-	=16-	=16-	=16-	=16-
*	*	*ij	*	*ij	*	*	*	*	*	*ij
!LO:LB:g=original	!	!	!	!	!	!	!	!	!	!
0FFny\	.	pr.	1.F\	p(ro)p-	1.A\	prop-	1.c\	glo-	1.f\	prop-
.	.	.	2F\	-(ter)	2A\	-ter	2c\	-ri-	2f\	-ter
!LO:TX:t=P:problem:kreska pseudotaktowa	!	!	!	!	!	!	!	!	!	!
1C/	.	m.	2C/	mag-	2.G/	mag-	2c\	-am	2.e\	mag-
!	!	!	!LO:TX:t=P:problem:kreska pseudotaktowa	!	!	!	!LO:TX:t=P:problem:kreska pseudotaktowa	!	!	!
*	*	*	*	*	*	*	*	*ij	*	*
.	.	.	2C/	-na(m)	.	.	2c\	prop-	.	.
!	!	!	!	!	!LO:TX:t=P:problem:kreska pseudotaktowa	!	!	!	!LO:TX:t=P:problem:kreska pseudotaktowa	!
.	.	.	.	.	4G/	-na(m)	.	.	4e\	-na(m)
=17-	=17-	=17-	=17-	=17-	=17-	=17-	=17-	=17-	=17-	=17-
0D\	.	gl.	1.D\	glo-	1.F/	glo-	1.A\	-ter	1.d\	glo-
!	!	!	!	!	!LO:SIC:a:v:custos:E	!	!	!	!	!
.	.	.	2D/	-ri-	2F/	-ri-	2A/	mag-	2d\	-ri-
!	!	!	!LO:SIC:a:v:custos:BB	!	!LO:LB:g=original	!	!	!	!LO:SIC:a:v:custos:d	!
!	!	!	!	!	!LO:TX:t=P:problem:kreska pseudotaktowa	!	!LO:TX:t=P:problem:kreska pseudotaktowa	!	!LO:TX:t=P:problem:kreska pseudotaktowa	!
1AA/	.	.	1AA/	-am	1E/	-am	1A\,	-nam	1c#X\	-a(m)
*	*	*Xij	*	*Xij	*	*	*	*Xij	*	*Xij
=18-	=18-	=18-	=18-	=18-	=18-	=18-	=18-	=18-	=18-	=18-
!LO:LB:g=original	!	!	!LO:LB:g=original	!	!	!	!	!	!LO:LB:g=original	!
0BB-X/	.	glo-	0BB-X/	glo-	1.D/	glo-	2F/	glo-	0d\	glo-
.	.	.	.	.	.	.	4G/	-ri-	.	.
.	.	.	.	.	.	.	4A/	-am	.	.
.	.	.	.	.	.	.	2B-X\	.	.	.
.	.	.	.	.	2D/	-ri-	2c\	.	.	.
!LO:TX:t=P:problem:kreska pseudotaktowa	!	!	!LO:TX:t=P:problem:kreska pseudotaktowa	!	!	!	!LO:SIC:a:v:custos:d	!	!	!
!	!	!	!	!	!LO:TX:t=P:problem:kreska pseudotaktowa	!	!LO:TX:t=P:problem:kreska pseudotaktowa	!	!LO:TX:t=P:problem:kreska pseudotaktowa	!
1GG/	.	-ri-	1GG/	-ri-	1B-X\	-am	1d\	.	1d\	-ri-
=19-	=19-	=19-	=19-	=19-	=19-	=19-	=19-	=19-	=19-	=19-
!	!	!	!	!	!LO:TX:t=P:problem:kreska pseudotaktowa	!	!LO:PB:g=original	!	!	!
1FFny/	.	-am	1FFny/	-am	0.A\	tu-	0d\	tu-	1f\	-am
!LO:TX:t=P:problem:kreska pseudotaktowa	!	!	!	!	!	!	!	!	!	!
0AA/	.	tu-	0AA/	tu-	.	.	.	.	0e\	tu-
!	!	!	!	!	!	!	!LO:TX:t=P:problem:# above	!	!	!
!	!	!	!	!	!	!	!LO:TX:t=P:problem:kreska pseudotaktowa	!	!	!
.	.	.	.	.	.	.	1c#X\	.	.	.
=20-	=20-	=20-	=20-	=20-	=20-	=20-	=20-	=20-	=20-	=20-
!LO:TX:t=P:problem:kreska pseudotaktowa	!	!	!LO:TX:t=P:problem:kreska pseudotaktowa	!	!	!	!	!	!LO:TX:t=P:problem:kreska pseudotaktowa	!
0.D\	.	-am	0.D\	-am	0.A\	-am	0.d\	-am	0.f#X\	-am
=21-	=21-	=21-	=21-	=21-	=21-	=21-	=21-	=21-	=21-	=21-
*M2/1	*	*	*M2/1	*	*M2/1	*	*M2/1	*	*M2/1	*
*met(c)	*	*	*met(c)	*	*met(c)	*	*met(c)	*	*met(c)	*
!	!	!	!	!	!	!	!LO:TX:t=P:problem:kreska pseudotaktowa	!	!LO:TX:t=P:problem:kreska pseudotaktowa	!
2A\,	.	Dne	2r	.	4.A/	Do-	1r	.	1r	.
.	.	.	.	.	16A/	-mi-	.	.	.	.
.	.	.	.	.	16A/	-ne	.	.	.	.
!LO:TX:t=P:problem:kreska pseudotaktowa	!	!	!	!	!	!	!	!	!	!
2D/	.	.	4.D/	Do-	8d\	De-	.	.	.	.
.	.	.	.	.	8d\	-us	.	.	.	.
.	.	.	.	.	8d\	Rex	.	.	.	.
!	!	!	!	!	!LO:TX:t=P:problem:kreska pseudotaktowa	!	!	!	!	!
.	.	.	16D/	-mi-	8c\	cae-	.	.	.	.
!	!	!	!LO:TX:t=P:problem:kreska pseudotaktowa	!	!	!	!	!	!	!
.	.	.	16D/	-ne	.	.	.	.	.	.
2G\	.	D.	8G\	De-	(4.Bny\	-le-	4.Bny\	Do-	4.d\	Do-
.	.	.	8G\	-(us)	.	.	.	.	.	.
.	.	.	8G\	Rex	.	.	.	.	.	.
.	.	.	8F\	cae-	8A\)	.	16B\	-mi-	16d\	-mi-
.	.	.	.	.	.	.	16B\	-ne	16d\	-ne
!LO:TX:t=P:problem:kreska pseudotaktowa	!	!	!	!	!	!	!	!	!	!
2E\	.	R.	4.E\	-le-	4G,</	-stis	8e\	De-	8g\	De-
.	.	.	.	.	.	.	8e\	-us	8g\	-(us)
.	.	.	.	.	8G/	De-	8e\	Rex	8g\	Rex
!	!	!	!LO:TX:t=P:problem:kreska pseudotaktowa	!	!LO:TX:t=P:problem:kreska pseudotaktowa	!	!LO:TX:t=P:problem:kreska pseudotaktowa	!	!LO:TX:t=P:problem:kreska pseudotaktowa	!
.	.	.	8E\	-ſtis	8G/	-us	8d\	cae-	8fny\	cae-
=22-	=22-	=22-	=22-	=22-	=22-	=22-	=22-	=22-	=22-	=22-
!	!	!	!	!	!LO:TX:t=P:problem:kreska pseudotaktowa	!	!	!	!	!
4.A\	.	c.	4.A\	De-	1A\	Pa-	8cny\	-les-	8.e\	-le-
.	.	.	.	.	.	.	8c\	-tis	.	.
.	.	.	.	.	.	.	.	.	16e\	-stis
.	.	.	.	.	.	.	8c\	De-	8e\	De-
8G\	.	D.	8G\	-(us)	.	.	8c\	-us	8e\	-(us)
!LO:TX:t=P:problem:kreska pseudotaktowa	!	!	!LO:TX:t=P:problem:kreska pseudotaktowa	!	!	!	!	!	!LO:TX:t=P:problem:kreska pseudotaktowa	!
2F\	.	Pa-	2F\	Pa-	.	.	8f\L	Pa-	2a\	Pa-
.	.	.	.	.	.	.	8g\	.	.	.
.	.	.	.	.	.	.	8f\	.	.	.
!	!	!	!	!	!	!	!LO:TX:t=P:problem:kreska pseudotaktowa	!	!	!
.	.	.	.	.	.	.	8e\J	.	.	.
4G\	.	-ter	4G\	-ter	4B,<\	-ter	4d\	.	4g\	-ter
4A\	.	.	4A\	o(m-	4c\	o(m-	8c\	-ter	4f#X\	om-
.	.	.	.	.	.	.	8c\	om-	.	.
2G\	.	om.	4.G\	-n)i-	4.c\	-n)i-	4.d\	-ni-	4.g\	-ni-
!	!	!	!LO:TX:t=P:problem:kreska pseudotaktowa	!	!LO:TX:t=P:problem:kreska pseudotaktowa	!	!LO:TX:t=P:problem:kreska pseudotaktowa	!	!LO:TX:t=P:problem:kreska pseudotaktowa	!
.	.	.	8G\	-po-	8B\	-po-	8d\	-po-	8g\	-po-
=23-	=23-	=23-	=23-	=23-	=23-	=23-	=23-	=23-	=23-	=23-
!	!	!	!LO:TX:t=P:problem:kreska pseudotaktowa	!	!	!	!	!	!LO:SIC:a:v:custos:a	!
!LO:TX:t=P:problem:kreska pseudotaktowa	!	!	!	!	!	!	!	!	!LO:TX:t=P:problem:kreska pseudotaktowa	!
1C/,<	.	-te(n)s	1C/	-te(n)s	4c\,<	-tens	1e\	-tens	1g\	-tens
!	!	!	!	!	!LO:SIC:a:v:custos:G	!	!	!	!	!
.	.	.	.	.	2G/	Do-	.	.	.	.
!	!	!	!	!	!LO:PB:g=original	!	!	!	!	!
.	.	.	.	.	8G/	-mi-	.	.	.	.
!	!	!	!	!	!LO:TX:t=P:problem:kreska pseudotaktowa	!	!	!	!	!
.	.	.	.	.	8G/	-ne	.	.	.	.
!	!	!	!	!	!	!	!LO:SIC:a:v:custos:A	!	!	!
!	!	!	!	!	!	!	!LO:TX:t=P:problem:kreska pseudotaktowa	!	!LO:PB:g=original	!
4.AA/	.	D.	4AA/	D(o-	2c\	Fi-	0r	.	4a\	D(o-
.	.	.	8AA/	-mi)-	.	.	.	.	8a\	-mi)-
8AA/	.	.	8AA/	-ne	.	.	.	.	8a\	-ne
!	!	!	!	!	!LO:TX:t=P:problem:kreska pseudotaktowa	!	!	!	!	!
4E\	.	Fi-	4E\	Fi-	2B\	-li	.	.	4.g\	Fi-
!LO:TX:t=P:problem:kreska pseudotaktowa	!	!	!LO:TX:t=P:problem:kreska pseudotaktowa	!	!	!	!	!	!	!
4BBny/	.	-li	4BBny/	-li	.	.	.	.	.	.
!	!	!	!	!	!	!	!	!	!LO:TX:t=P:problem:kreska pseudotaktowa	!
.	.	.	.	.	.	.	.	.	8g\	-li
=24-	=24-	=24-	=24-	=24-	=24-	=24-	=24-	=24-	=24-	=24-
4.D/	.	u-	4.D/	V-	(>8A/L	V-	.	.	8f#X\	V-
!	!	!	!	!	!	!	!	!	!LO:TX:t=P:problem:# above	!
.	.	.	.	.	8G/J)	.	.	.	8g#X\	-ni-
.	.	.	.	.	(>8F#X/L	-ni-	.	.	2a\	-ge-
!	!	!	!LO:SIC:a:v:custos:BB	!	!	!	!	!	!	!
!LO:N:vis=4	!	!	!LO:N:vis=4	!	!	!	!	!	!	!
8C/	.	-ni-	8C/	-ni-	8E/J)	.	.	.	.	.
!LO:LB:g=original	!	!	!LO:LB:g=original	!	!	!	!	!	!	!
4.BB/	.	-ge-	4.BBn/	-ge-	4.D/	-ge-	.	.	.	.
!	!	!	!	!	!	!	!	!	!LO:TX:t=P:problem:# above	!
!	!	!	!	!	!	!	!	!	!LO:TX:t=P:problem:kreska pseudotaktowa	!
.	.	.	.	.	.	.	.	.	4g#X\	-ni-
!LO:SIC:a:v:custos:AA	!	!	!LO:TX:t=P:problem:kreska pseudotaktowa	!	!LO:TX:t=P:problem:kreska pseudotaktowa	!	!	!	!	!
8BB/	.	-ni-	8BB/	-ni-	8D/	-ni-	.	.	.	.
2AA/	.	-te	2AA/	-te	2E/	-te	8A\L	Je-	2a\	-te
.	.	.	.	.	.	.	8B\	.	.	.
.	.	.	.	.	.	.	8c\	.	.	.
.	.	.	.	.	.	.	8d\J	.	.	.
!	!	!	!	!	!LO:TX:t=P:problem:kreska pseudotaktowa	!	!LO:TX:t=P:problem:kreska pseudotaktowa	!	!	!
8AA/L	.	Je-	8AA/L	Je-	2c\	Je-	2e\	-su	8a\L	Je-
8BB/	.	.	8BB/	.	.	.	.	.	8gny\	.
8C/	.	.	8C/	.	.	.	.	.	8e\	.
!LO:TX:t=P:problem:kreska pseudotaktowa	!	!	!LO:TX:t=P:problem:kreska pseudotaktowa	!	!	!	!	!	!LO:TX:t=P:problem:# above	!
!	!	!	!	!	!	!	!	!	!LO:TX:t=P:problem:kreska pseudotaktowa	!
8D/J	.	.	8D/J	.	.	.	.	.	8f#X\J	.
=25-	=25-	=25-	=25-	=25-	=25-	=25-	=25-	=25-	=25-	=25-
2E\	.	.	2E\	.	2G/	-su	2B\	Chri-	2g\	-Su
!LO:TX:t=P:problem:kreska pseudotaktowa	!	!	!LO:TX:t=P:problem:kreska pseudotaktowa	!	!LO:TX:t=P:problem:kreska pseudotaktowa:między nutą a kropką	!	!LO:TX:t=P:problem:kreska pseudotaktowa	!	!LO:TX:t=P:problem:kreska pseudotaktowa	!
2BB/,<	.	-su	2BB/	-su	(2.B\	Chris-	2d\	.	2f#X\	.
4.C/	.	X-	4.C/	Chris-	.	.	2c\	.	1e\	Chriſ-
.	.	.	.	.	2A/)	.	.	.	.	.
8D/	.	.	8D/	.	.	.	.	.	.	.
!LO:TX:t=P:problem:kreska pseudotaktowa	!	!	!LO:TX:t=P:problem:kreska pseudotaktowa	!	!	!	!LO:TX:t=P:problem:kreska pseudotaktowa	!	!	!
2E\	.	.	2E\	.	.	.	2B\	.	.	.
!	!	!	!	!	!LO:TX:t=P:problem:# below	!	!	!	!	!
!	!	!	!	!	!LO:TX:t=P:problem:kreska pseudotaktowa	!	!	!	!	!
.	.	.	.	.	4G#X/	.	.	.	.	.
=26-	=26-	=26-	=26-	=26-	=26-	=26-	=26-	=26-	=26-	=26-
2AA/,<	.	-ste	2AA/	-ste	2A/	-te	2A/	-ste	2e\	-te
4AA/	.	D(o-	4AA/	D(o-	4A/	Do-	4c#X\	Do-	4e\	D(o-
8AA/L	.	-mi)-	8AA/	-mi)-	8A/	-mi-	8c#\	-mi-	8e\	-mi)-
!LO:TX:t=P:problem:kreska pseudotaktowa	!	!	!LO:TX:t=P:problem:kreska pseudotaktowa	!	!LO:TX:t=P:problem:kreska pseudotaktowa	!	!LO:TX:t=P:problem:kreska pseudotaktowa	!	!LO:TX:t=P:problem:kreska pseudotaktowa	!
8AA/J	.	-ne	8AA/	-ne	8A/	-ne	8c#\	-ne	8e\	-ne
4D/	.	D.	4D/	De-	2B\	De-	4d\	De-	4.f#X\	De-
4BB/	.	.	4BB/	-(us)	.	.	4d\	-us	.	.
.	.	.	.	.	.	.	.	.	8f#\	-us
!	!	!	!	!	!LO:TX:t=P:problem:kreska pseudotaktowa	!	!LO:TX:t=P:problem:kreska pseudotaktowa:między nutą a kropką	!	!LO:TX:t=P:problem:kreska pseudotaktowa	!
8E\L	.	A-	8E\L	A-	2B\	-us	2.e\	A-	2g\	A-
!LO:TX:t=P:problem:♯above	!	!	!	!	!	!	!	!	!	!
8F#X\	.	.	8F#X\	.	.	.	.	.	.	.
8G\	.	.	8G\	.	.	.	.	.	.	.
!LO:TX:t=P:problem:kreska pseudotaktowa	!	!	!LO:TX:t=P:problem:kreska pseudotaktowa	!	!	!	!	!	!	!
8A\J	.	.	8A\J	.	.	.	.	.	.	.
=27-	=27-	=27-	=27-	=27-	=27-	=27-	=27-	=27-	=27-	=27-
4.B\	.	-gn(us)	4.B\	-gnus	2.B\	a-	.	.	4f#X\	-gnus
.	.	.	.	.	.	.	2d\	-gnus	2f#\	De-
8A\	.	.	8A\	.	.	.	.	.	.	.
4G#X\	.	De-	4G#X\	De-	.	.	.	.	.	.
!	!	!	!	!	!LO:SIC:a:v:custos:A	!	!	!	!	!
!	!	!	!	!	!LO:TX:t=P:problem:kreska pseudotaktowa	!	!	!	!	!
8A\L	.	.	8A\L	.	4A\	-gnus	8cny\L	De-	2e\	.
!LO:TX:t=P:problem:kreska pseudotaktowa	!	!	!LO:TX:t=P:problem:kreska pseudotaktowa	!	!	!	!LO:TX:t=P:problem:kreska pseudotaktowa	!	!	!
8G#\J	.	.	8G#\J	.	.	.	8B\J	.	.	.
!	!	!	!	!	!LO:LB:g=original	!	!	!	!	!
8F#X\L	.	.	8F#X\L	.	2A/	De-	8A/L	.	.	.
8E\J	.	.	8E\J	.	.	.	8G/J	.	.	.
!LO:TX:t=P:problem:# above	!	!	!LO:TX:t=P:problem:# above	!	!	!	!	!	!	!
4F#X\	.	.	4F#X\	.	.	.	4A/	.	4d#X\	.
!LO:TX:t=P:problem:kreska pseudotaktowa	!	!	!LO:TX:t=P:problem:kreska pseudotaktowa	!	!LO:TX:t=P:problem:# below	!	!	!	!	!
!	!	!	!	!	!LO:TX:t=P:problem:kreska pseudotaktowa	!	!	!	!LO:TX:t=P:problem:kreska pseudotaktowa	!
2E\	.	-i	2E\	-i	2G#X/	-i	4B\	-i	2e\	-i
!	!	!	!	!	!	!	!LO:TX:t=P:problem:kreska pseudotaktowa	!	!	!
.	.	.	.	.	.	.	[4e\	fi-	.	.
=28-	=28-	=28-	=28-	=28-	=28-	=28-	=28-	=28-	=28-	=28-
!	!	!	!	!	!LO:TX:t=P:problem:kreska pseudotaktowa	!	!LO:N:xstem:cue	!	!	!
4.A\	.	Fi-	4.A\	Fi-	1r	.	8e\]	.	2r	.
.	.	.	.	.	.	.	8e\	-li-	.	.
!	!	!	!	!	!	!	!LO:TX:t=P:problem:# above	!	!	!
.	.	.	.	.	.	.	4c#X\	-us	.	.
8A\	.	-li-	8A\	-li-	.	.	.	.	.	.
!	!	!	!LO:SIC:a:v:custos:D	!	!	!	!	!	!	!
!LO:TX:t=P:problem:kreska pseudotaktowa	!	!	!LO:TX:t=P:problem:kreska pseudotaktowa	!	!	!	!LO:TX:t=P:problem:kreska pseudotaktowa	!	!LO:LB:g=original	!
2F#X\	.	-(us)	2F#X\	-us	.	.	(2d\	Pa-	4.a\	Fi-
!	!	!	!	!	!	!	!	!	!LO:TX:t=P:problem:kreska pseudotaktowa	!
.	.	.	.	.	.	.	.	.	8a\	-li-
!LO:LB:g=original	!	!	!LO:LB:g=original	!	!	!	!	!	!	!
4.D/	.	Pa-	4.D/	Pa-	4r	.	8d\L)	.	2f#X\	-us
.	.	.	.	.	.	.	16c#y\L	.	.	.
!	!	!	!	!	!	!	!LO:SIC:a:v:custos:A	!	!	!
.	.	.	.	.	.	.	16B\JJ	.	.	.
!	!	!	!	!	!	!	!LO:LB:g=original	!	!	!
.	.	.	.	.	4.d\	Fi-	4A/	.	.	.
8C/L	.	.	8C/L	.	.	.	.	.	.	.
!	!	!	!	!	!	!	!LO:TX:t=P:problem:kreska pseudotaktowa	!	!LO:TX:t=P:problem:kreska pseudotaktowa	!
8BB/	.	.	8BB/	.	.	.	2B\	-tris	2g\	Pa-
8AA/J	.	.	8AA/J	.	8c\	-li-	.	.	.	.
!LO:SIC:a:v:custos:C	!	!	!	!	!	!	!	!	!	!
!LO:TX:t=P:problem:kreska pseudotaktowa	!	!	!LO:TX:t=P:problem:kreska pseudotaktowa	!	!LO:TX:t=P:problem:kreska pseudotaktowa	!	!	!	!	!
4GG/	.	.	4GG/	.	4B\	-us	.	.	.	.
=29-	=29-	=29-	=29-	=29-	=29-	=29-	=29-	=29-	=29-	=29-
!	!	!	!	!	!LO:TX:t=P:problem:kreska pseudotaktowa	!	!	!	!	!
8C\L	.	.	8C\L	.	1Gny/	pa-	2.cny\	Qui-	2e\	.
8D\	.	.	8D\	.	.	.	.	.	.	.
8E\	.	.	8E\	.	.	.	.	.	.	.
8Fny\J	.	.	8Fny\J	.	.	.	.	.	.	.
4Gny\	.	.	4Gny\	.	.	.	.	.	2dny\	.
!LO:TX:t=P:problem:kreska pseudotaktowa	!	!	!LO:TX:t=P:problem:kreska pseudotaktowa	!	!	!	!	!	!	!
4GG/	.	.	4GG/	.	.	.	2B\	-tol-	.	.
!	!	!	!	!	!	!	!	!	!LO:TX:t=P:problem:kreska pseudotaktowa	!
1AA/	.	-tris q	2AA/	.	2E/	-tris	.	.	1cny\	.
.	.	.	.	.	.	.	8A/L	.	.	.
.	.	.	.	.	.	.	8G/J	.	.	.
!	!	!	!	!	!	!	!LO:TX:t=P:problem:kreska pseudotaktowa	!	!	!
.	.	.	4AA,</	-tris	4E/	qui	2A/	.	.	.
!LO:TX:t=P:problem:kreska pseudotaktowa	!	!	!LO:TX:t=P:problem:kreska pseudotaktowa	!	!	!	!	!	!	!
.	.	.	4AA/	qui	2e\	tol-	.	.	.	.
=30-	=30-	=30-	=30-	=30-	=30-	=30-	=30-	=30-	=30-	=30-
2E\	.	tol.	2E\	tol-	.	.	2G#X/	-lis	2B/	-tris
.	.	.	.	.	8B\	-lis	.	.	.	.
.	.	.	.	.	8B\	pec-	.	.	.	.
4BB/	.	.	4BB/	-lis	4.d\	-ca-	4B\	pec-	2r	.
!LO:TX:t=P:problem:kreska pseudotaktowa	!	!	!LO:TX:t=P:problem:kreska pseudotaktowa	!	!	!	!LO:TX:t=P:problem:kreska pseudotaktowa:między nutą a kropką	!	!	!
4GG/	.	pec.	4GG/	pec-	.	.	4.B\	-ca-	.	.
!	!	!	!	!	!LO:TX:t=P:problem:kreska pseudotaktowa	!	!	!	!	!
.	.	.	.	.	8d\	-ta	.	.	.	.
!	!	!	!	!	!	!	!	!	!LO:TX:t=P:problem:kreska pseudotaktowa	!
4AA/	.	.	4AA/	-ca-	(2c\	mun-	.	.	1r	.
.	.	.	.	.	.	.	8A/	-ta	.	.
4FF/	.	.	4F\	-ta	.	.	2A/	mun-	.	.
!	!	!	!	!	!LO:TX:t=P:problem:kreska pseudotaktowa	!	!	!	!	!
4DD/	.	.	4D\	mun-	2B\)	.	.	.	.	.
!LO:TX:t=P:problem:kreska pseudotaktowa	!	!	!LO:TX:t=P:problem:kreska pseudotaktowa	!	!	!	!LO:TX:t=P:problem:# below	!	!	!
!	!	!	!	!	!	!	!LO:TX:t=P:problem:kreska pseudotaktowa	!	!	!
4EE/	.	mun-	4E\	.	.	.	4G#X/	.	.	.
=31-	=31-	=31-	=31-	=31-	=31-	=31-	=31-	=31-	=31-	=31-
2AA/,<	.	-di	2AA/	-di	2A\	-di	2A/	-di	4r	.
.	.	.	.	.	.	.	.	.	4.e\	mi-
!LO:TX:t=P:problem:kreska pseudotaktowa	!	!	!LO:TX:t=P:problem:kreska pseudotaktowa	!	!	!	!	!	!	!
2A\	.	.	2rBB	.	4.A/	mi-	4.c\	mi-	.	.
.	.	.	.	.	.	.	.	.	8e\	-se-
!	!	!	!	!	!	!	!	!	!LO:TX:t=P:problem:kreska pseudotaktowa:między nutą a kropką	!
.	.	.	.	.	.	.	.	.	4.f#X\	-re-
!	!	!	!	!	!LO:TX:t=P:problem:kreska pseudotaktowa	!	!LO:TX:t=P:problem:kreska pseudotaktowa	!	!	!
.	.	.	.	.	8A/	-se-	8c\	-ſe-	.	.
2B\	.	.	0rC	.	4.B\	-re-	4.d\	-re-	.	.
.	.	.	.	.	.	.	.	.	8d\	-re
*	*	*	*	*	*	*	*	*	*	*ij
.	.	.	.	.	.	.	.	.	4.g\	mi-
.	.	.	.	.	8B\	-re	8B\	-re	.	.
4.c\	.	.	.	.	4.c\	mi-	4.e\	mi-	.	.
.	.	.	.	.	.	.	.	.	8fny\	-se-
!	!	!	!	!	!	!	!	!	!LO:TX:t=P:problem:kreska pseudotaktowa:między nutą a kropką	!
.	.	.	.	.	.	.	.	.	4.e\	-re-
!	!	!	!	!	!LO:SIC:a:v:custos:A	!	!	!	!	!
!LO:TX:t=P:problem:kreska pseudotaktowa	!	!	!	!	!LO:TX:t=P:problem:kreska pseudotaktowa	!	!LO:TX:t=P:problem:kreska pseudotaktowa	!	!	!
8B\	.	.	.	.	8B\	se-	8d\	-se-	.	.
=32-	=32-	=32-	=32-	=32-	=32-	=32-	=32-	=32-	=32-	=32-
!	!	!	!	!	!LO:LB:g=original	!	!	!	!	!
4A\	.	.	.	.	4A/	-re-	8c\L	-re-	.	.
.	.	.	.	.	.	.	8d\	.	8f#X\L	.
4G\	.	.	.	.	4G/	-re	8.e\J	.	8g\J	.
.	.	.	.	.	.	.	.	.	8g\	-re
.	.	.	.	.	.	.	16e\	-re	.	.
*	*	*	*	*	*	*	*	*	*	*Xij
4A\	.	.	.	.	4A/	no-	4e\	no-	2f#X\	no-
!	!	!	!	!	!	!	!LO:TX:t=P:problem:# above	!	!	!
!	!	!	!	!	!	!	!LO:SIC:a:v:custos:e	!	!	!
!	!	!	!	!	!	!	!LO:TX:t=P:problem:kreska pseudotaktowa	!	!	!
4B\	.	.	.	.	4B\	.	4d\#	.	.	.
*M3/1	*	*	*M3/1	*	*M3/1	*	*M3/1	*	*M3/1	*
!	!	!	!	!	!	!	!LO:LB:g=original	!	!	!
0E\,<	.	.	1rD	.	0E/	-bis	0e\	-bis	0e\,<	-bis
.	.	.	1rD	.	.	.	.	.	.	.
!LO:TX:t=P:problem:kreska pseudotaktowa	!	!	!LO:TX:t=P:problem:kreska pseudotaktowa	!	!LO:TX:t=P:problem:kreska pseudotaktowa	!	!LO:TX:t=P:problem:kreska pseudotaktowa	!	!LO:TX:t=P:problem:kreska pseudotaktowa	!
1C/	.	qui	1C/	Qui	1c\	Qui	1e\	Qui	1g\	Qui
=33-	=33-	=33-	=33-	=33-	=33-	=33-	=33-	=33-	=33-	=33-
0C/	.	tol.	1.C/	tol-	1.c\	tol-	1.e\	tol-	1.g\	tol-
.	.	.	2C/	-lis	2c\	-lis	2e\	-lis	2g\	-lis
!	!	!	!LO:TX:t=P:problem:kreska pseudotaktowa	!	!LO:TX:t=P:problem:kreska pseudotaktowa	!	!LO:TX:t=P:problem:kreska pseudotaktowa	!	!LO:SIC:a:v:custos:g	!
!	!	!	!	!	!	!	!	!	!LO:TX:t=P:problem:kreska pseudotaktowa	!
1C/	.	.	1C/	pec-	1c\	pec-	1e\	pec-	1g\	pec-
=34-	=34-	=34-	=34-	=34-	=34-	=34-	=34-	=34-	=34-	=34-
!LO:TX:t=P:problem:kreska pseudotaktowa	!	!	!	!	!	!	!	!	!LO:LB:g=original	!
0.GG/	.	p.	0GG/	-ca-	0B\	-ca-	0dny\	-ca-	0g\	-ca-
!	!	!	!	!	!LO:TX:t=P:problem:kreska pseudotaktowa	!	!LO:TX:t=P:problem:kreska pseudotaktowa	!	!LO:TX:t=P:problem:kreska pseudotaktowa	!
.	.	.	1GG/	-ta	1B\	-ta	1d\	-ta	1g\	-ta
=35-	=35-	=35-	=35-	=35-	=35-	=35-	=35-	=35-	=35-	=35-
*	*	*	*	*	*lig	*	*	*	*	*
0C/	.	mun-	0C/	mun-	1c\	mun-	2e\	mun-	0g\	mun-
.	.	.	.	.	.	.	2d\	.	.	.
.	.	.	.	.	1e\	.	2c\	.	.	.
.	.	.	.	.	.	.	2B\	.	.	.
*	*	*	*	*	*Xlig	*	*	*	*	*
!	!	!	!LO:SIC:a:v:custos:GG	!	!	!	!	!	!	!
!	!	!	!LO:TX:t=P:problem:kreska pseudotaktowa	!	!LO:TX:t=P:problem:kreska pseudotaktowa	!	!LO:TX:t=P:problem:kreska pseudotaktowa	!	!	!
1D\	.	.	1D\	.	1d\	.	1A\	.	1f#X\	.
=36-	=36-	=36-	=36-	=36-	=36-	=36-	=36-	=36-	=36-	=36-
!LO:TX:t=P:problem:kreska pseudotaktowa	!	!	!LO:TX:t=P:problem:kreska pseudotaktowa	!	!LO:TX:t=P:problem:kreska pseudotaktowa	!	!LO:TX:t=P:problem:kreska pseudotaktowa	!	!LO:TX:t=P:problem:kreska pseudotaktowa	!
!LO:SIC:a:v:custos:G	!	!	!LO:PB:g=original	!	!	!	!	!	!	!
0.GG/	.	-di	0.GG/	-di	0.d\	-di	0.B\	-di	0.g\	-di
=37-	=37-	=37-	=37-	=37-	=37-	=37-	=37-	=37-	=37-	=37-
!LO:PB:g=original	!	!	!	!	!	!	!	!	!	!
1.G\	.	Sus-	1.G\	Sus-	1.B\	sus-	1.d\	Sus-	1.g\	Sus-
2G\	.	-cip.	4G\	-ci-	4B\	-ci-	4d\	-ci-	4g\	-ci-
.	.	.	4G\	-pe	4B\	-pe	4d\	-pe	4g\	-pe
!LO:TX:t=P:problem:kreska pseudotaktowa	!	!	!	!	!	!	!	!	!	!
1F\	.	dep.	2.F\	de-	2.c\	de-	2.f\	de-	2.a\	de-
!	!	!	!LO:TX:t=P:problem:kreska pseudotaktowa	!	!LO:TX:t=P:problem:kreska pseudotaktowa	!	!LO:TX:t=P:problem:kreska pseudotaktowa	!	!LO:TX:t=P:problem:kreska pseudotaktowa	!
.	.	.	4F\	-pre-	4c\	-pre-	4f\	-pre-	4a\	-pre-
=38-	=38-	=38-	=38-	=38-	=38-	=38-	=38-	=38-	=38-	=38-
1A\	.	.	2.A\	-ca-	2.c\	-ca-	2.e\	-ca-	2.a\	-ca-
!	!	!	!	!	!LO:SIC:a:v:custos:B	!	!	!	!	!
.	.	.	4A\	-ti-	4c\	-ti-	4e\	-ti-	4a\	-ti-
!	!	!	!	!	!LO:LB:g=original	!	!	!	!	!
1E\	.	.	2.E\	-o-	2.B\	-o-	2.e\	-o-	2.g\	-o-
.	.	.	4E\	-ne(m)	4B\	-nem	4e\	-nem	4g\	-nem
!LO:TX:t=P:problem:kreska pseudotaktowa	!	!	!LO:TX:t=P:problem:kreska pseudotaktowa	!	!LO:TX:t=P:problem:kreska pseudotaktowa	!	!LO:TX:t=P:problem:kreska pseudotaktowa	!	!LO:TX:t=P:problem:kreska pseudotaktowa	!
1F\	.	no-	1F\	no-	1A\	no-	1c\	nos-	1fny\	no-
=39-	=39-	=39-	=39-	=39-	=39-	=39-	=39-	=39-	=39-	=39-
!	!	!	!LO:TX:t=P:problem:kreska pseudotaktowa	!	!LO:TX:t=P:problem:kreska pseudotaktowa	!	!LO:SIC:a:v:custos:c	!	!	!
!	!	!	!	!	!	!	!LO:TX:t=P:problem:kreska pseudotaktowa	!	!LO:TX:t=P:problem:kreska pseudotaktowa	!
0.C/	.	-stra(m)	0.C/	-ſtram	0.G/	-stram	0.c\	-tram	0.e\	-ſtram
=40-	=40-	=40-	=40-	=40-	=40-	=40-	=40-	=40-	=40-	=40-
!LO:TX:t=P:problem:kreska pseudotaktowa	!	!	!	!	!	!	!LO:LB:g=original	!	!	!
0.C/	.	Suſcipe	1.C/	Sus-	1.G/	sus-	1.c\	Sus-	1.e\	Sus-
.	.	.	2C/	-ci-	2G/	-ci-	2c\	-ci-	2e\	-ci-
!	!	!	!LO:TX:t=P:problem:kreska pseudotaktowa	!	!LO:TX:t=P:problem:kreska pseudotaktowa	!	!LO:TX:t=P:problem:kreska pseudotaktowa	!	!LO:TX:t=P:problem:kreska pseudotaktowa	!
.	.	.	1C/	-pe	1G/	-pe	1c\	-pe	1e\	-pe
=41-	=41-	=41-	=41-	=41-	=41-	=41-	=41-	=41-	=41-	=41-
0C/	.	de-	0C/	de-	0c\	de-	0e\	de-	0g\	de-
!LO:TX:t=P:problem:kreska pseudotaktowa	!	!	!LO:TX:t=P:problem:kreska pseudotaktowa	!	!LO:TX:t=P:problem:kreska pseudotaktowa	!	!	!	!	!
!	!	!	!	!	!	!	!	!	!LO:TX:t=P:problem:kreska pseudotaktowa	!
1D\	.	-pre-	1D\	-pre-	1A\	-pre-	1d\	-pre-	1f\	-pre-
=42-	=42-	=42-	=42-	=42-	=42-	=42-	=42-	=42-	=42-	=42-
0E\	.	-ca-	1.E\	-ca-	1.G/	-ca-	1.B\	-ca-	1.e\	-ca-
.	.	.	2E\	-ti-	2G/	-ti-	2e\	-ti-	2g\	-ti-
!LO:TX:t=P:problem:kreska pseudotaktowa	!	!	!LO:TX:t=P:problem:kreska pseudotaktowa	!	!	!	!LO:TX:t=P:problem:kreska pseudotaktowa	!	!LO:TX:t=P:problem:kreska pseudotaktowa	!
1F\	.	-ti-	1F\	-o-	2A/	-o-	1d\	-o-	1f\	-o-
!	!	!	!	!	!LO:TX:t=P:problem:kreska pseudotaktowa	!	!	!	!	!
.	.	.	.	.	2B\	-nem	.	.	.	.
=43-	=43-	=43-	=43-	=43-	=43-	=43-	=43-	=43-	=43-	=43-
1A\	.	-o-	1A\	-nem	0c\	no-	1c\	-nem	1e\	-ne(m)
*	*	*	*lig	*	*	*	*	*	*	*
*	*	*	*	*	*	*	*	*	*lig	*
1F\	.	-nem	1F\	no-	.	.	0d\	no-	1a\	no-
!	!	!	!	!	!LO:TX:t=P:problem:kreska pseudotaktowa	!	!	!	!LO:SIC:a:v:custos:g	!
!	!	!	!	!	!	!	!	!	!LO:TX:t=P:problem:kreska pseudotaktowa	!
1G\	.	no-	1G\	.	1B\	.	.	.	1g\	.
*	*	*	*Xlig	*	*	*	*	*	*Xlig	*
=44-	=44-	=44-	=44-	=44-	=44-	=44-	=44-	=44-	=44-	=44-
!	!	!	!LO:TX:t=P:problem:kreska pseudotaktowa	!	!	!	!LO:TX:t=P:problem:kreska pseudotaktowa	!	!LO:TX:t=P:problem:kreska pseudotaktowa	!
!	!	!	!	!	!	!	!	!	!LO:LB:g=original	!
0.C/	.	-sra(m)	0.C/	-ſra(m)	0.c\	-stram	0.e\	-stram	0.g\	-ſram
=45-	=45-	=45-	=45-	=45-	=45-	=45-	=45-	=45-	=45-	=45-
*M2/1	*	*	*M2/1	*	*M2/1	*	*M2/1	*	*M2/1	*
*met(c)	*	*	*met(c)	*	*met(c)	*	*met(c)	*	*met(c)	*
4r	.	.	4r	.	4r	.	4r	.	4r	.
!	!	!	!LO:SIC:a:v:custos:AA	!	!LO:TX:t=P:problem:# above	!	!	!	!	!
2AA/	.	q	4AA/	Qui	4c#X\	Qui	4e\	Qui	4a\	Qui
!	!	!	!LO:LB:g=original	!	!LO:SIC:a:v:t=custos c	!	!	!	!	!
.	.	.	4AA/	Se-	4c#\	se-	4e\	se-	4a\	se-
!	!	!	!	!	!LO:LB:g=original	!	!	!	!	!
4AA/	.	sed.	8AA/	-des	8c#\	-des	8e\	-des	8a\	-des
!LO:TX:t=P:problem:kreska pseudotaktowa	!	!	!LO:TX:t=P:problem:kreska pseudotaktowa	!	!LO:TX:t=P:problem:kreska pseudotaktowa	!	!LO:TX:t=P:problem:kreska pseudotaktowa	!	!LO:TX:t=P:problem:kreska pseudotaktowa	!
.	.	.	8AA/	ad	8c#\	ad	8e\	ad	8a\	ad
4.D/	.	ad	4D/	de-	4d\	de-	4A/	dex-	4fn\	de-
.	.	.	8D/	-xte-	8d\	-xte-	8A/	-te-	8f\	-xte-
8C#X/	.	Dex.	8C#X/	-ram	8e\	-ram	8A/	-ram	8e\	-ram
!LO:TX:t=P:problem:kreska pseudotaktowa	!	!	!LO:TX:t=P:problem:kreska pseudotaktowa	!	!LO:TX:t=P:problem:kreska pseudotaktowa	!	!LO:TX:t=P:problem:kreska pseudotaktowa	!	!LO:TX:t=P:problem:kreska pseudotaktowa	!
2D/	.	P.	2D/	Pa-	2d\	pa-	2A/	Pa-	2f\	Pa-
=46-	=46-	=46-	=46-	=46-	=46-	=46-	=46-	=46-	=46-	=46-
!	!	!	!	!	!	!	!LO:SIC:a:v:custos:c#	!	!	!
4AA/	.	.	4AA/	-tris	4c#X\	-tris	4A/	-tris	4e\	-tris
!	!	!	!	!	!	!	!LO:LB:g=original	!	!	!
2A\	.	miſ.	2A\	mi-	2A/	mi-	2c#X\	mi-	2e\	mi-
!LO:TX:t=P:problem:kreska pseudotaktowa	!	!	!LO:TX:t=P:problem:kreska pseudotaktowa	!	!LO:TX:t=P:problem:kreska pseudotaktowa	!	!LO:TX:t=P:problem:kreska pseudotaktowa	!	!LO:TX:t=P:problem:kreska pseudotaktowa	!
4F\	.	.	4F\	-ſe-	4A/	-se-	4d\	-se-	4f\	-ſe-
4B-X\	.	no-	4B-X\	-re-	4.B-X\	-re-	8.d\	-re-	4f\	-re-
.	.	.	.	.	.	.	16d\	-re	.	.
4G\	.	.	4G\	-re	.	.	2d\	no-	4g\	-re
.	.	.	.	.	8B-\	-re	.	.	.	.
!	!	!	!	!	!LO:TX:t=P:problem:kreska pseudotaktowa	!	!	!	!LO:TX:t=P:problem:kreska pseudotaktowa	!
2A\	.	.	2A\	no-	2A/	no-	.	.	2e\	no-
!	!	!	!	!	!	!	!LO:TX:t=P:problem:# above	!	!	!
!	!	!	!	!	!	!	!LO:TX:t=P:problem:kreska pseudotaktowa	!	!	!
.	.	.	.	.	.	.	4c#X\	.	.	.
=47-	=47-	=47-	=47-	=47-	=47-	=47-	=47-	=47-	=47-	=47-
!LO:TX:t=P:problem:kreska pseudotaktowa	!	!	!	!	!	!	!	!	!LO:TX:t=P:problem:kreska pseudotaktowa	!
1D\	.	-bis.	1D\	-bis	1A\	-bis	1d\	-bis	1f#X\	bis
=48-	=48-	=48-	=48-	=48-	=48-	=48-	=48-	=48-	=48-	=48-
*M3/1	*	*	*M3/1	*	*M3/1	*	*M3/1	*	*M3/1	*
!LO:LB:g=original	!	!	!	!	!	!	!	!	!	!
1.D\	.	Quo-	1.D\	Quo-	1.A\	quo-	1.d\	Quo-	1.f#X\	Quo-
2D/	.	-ni-	2D/	-ni-	2A/	-ni-	2d\	-ni-	2f#\	-ni-
!LO:TX:t=P:problem:kreska pseudotaktowa	!	!	!	!	!	!	!	!	!	!
1BBn/	.	-am	2BBn/	-am	2Bny\	-am	2d\	-am	2g#X\	-am
!	!	!	!LO:TX:t=P:problem:kreska pseudotaktowa	!	!LO:TX:t=P:problem:kreska pseudotaktowa	!	!LO:TX:t=P:problem:kreska pseudotaktowa	!	!LO:TX:t=P:problem:kreska pseudotaktowa	!
.	.	.	2BB/	tu	2B\	tu	2d\	tu	2g#\	tu
=49-	=49-	=49-	=49-	=49-	=49-	=49-	=49-	=49-	=49-	=49-
!	!	!	!	!	!	!	!LO:TX:t=P:problem:kreska pseudotaktowa	!	!	!
2AA/	.	Tu	2AA/	ſo-	1cny\	So-	0.e\	So-	1a\	so-
2BB/	.	so-	2BB/	.	.	.	.	.	.	.
2Cny/	.	.	2Cny/	.	1c\	-lus	.	.	1a\	-lus
2D/	.	.	2D/	.	.	.	.	.	.	.
!LO:TX:t=P:problem:kreska pseudotaktowa	!	!	!LO:TX:t=P:problem:kreska pseudotaktowa	!	!LO:TX:t=P:problem:kreska pseudotaktowa	!	!	!	!LO:SIC:a:v:custos:a	!
!	!	!	!	!	!	!	!	!	!LO:TX:t=P:problem:kreska pseudotaktowa	!
1E\	.	.	1E\	.	1B\	.	.	.	1g#X\	tu
=50-	=50-	=50-	=50-	=50-	=50-	=50-	=50-	=50-	=50-	=50-
!	!	!	!	!	!	!	!	!	!LO:LB:g=original	!
1F\	.	-l(us)	1F\	.	2A/	tu	1cny\	-lus	1.a\	So-
.	.	.	.	.	4B\	so-	.	.	.	.
!	!	!	!	!	!LO:SIC:a:v:custos:d	!	!	!	!	!
.	.	.	.	.	4c\	.	.	.	.	.
*	*	*	*	*	*	*	*lig	*	*	*
!	!	!	!	!	!LO:LB:g=original	!	!	!	!	!
1D\	.	San-	1D\	-lus	2d\	-lus	1f\	San-	.	.
.	.	.	.	.	2c\	.	.	.	2a\	-lus
!	!	!	!	!	!LO:TX:t=P:problem:kreska pseudotaktowa	!	!LO:TX:t=P:problem:kreska pseudotaktowa	!	!LO:TX:t=P:problem:kreska pseudotaktowa	!
1E\	.	.	1E\	San-	1B\	san-	1e\	.	1g#X\	San-
*	*	*	*	*	*	*	*Xlig	*	*	*
=51-	=51-	=51-	=51-	=51-	=51-	=51-	=51-	=51-	=51-	=51-
!LO:TX:t=P:problem:kreska pseudotaktowa	!	!	!LO:TX:t=P:problem:kreska pseudotaktowa	!	!LO:N:acc=-	!	!	!	!	!
!	!	!	!	!	!LO:TX:t=P:problem:kreska pseudotaktowa	!	!LO:TX:t=P:problem:kreska pseudotaktowa	!	!LO:TX:t=P:problem:kreska pseudotaktowa	!
0.AA/	.	-ct(us).	0.AA/	-ct(us)	0.cn\	-ctus	0.e\	-ctus	0.a\	-ct(us)
=52-	=52-	=52-	=52-	=52-	=52-	=52-	=52-	=52-	=52-	=52-
1AA\	.	Tu	1A\	tu	1c\	tu	1e\	tu	1a\	tu
1E\	.	ſo-	1E\	ſo-	1B\	so-	1e\	so-	1gny\	so-
!	!	!	!LO:SIC:a:v:custos:C	!	!	!	!LO:SIC:v:a:custos:c	!	!	!
!LO:TX:t=P:problem:kreska pseudotaktowa	!	!	!LO:TX:t=P:problem:kreska pseudotaktowa	!	!LO:TX:t=P:problem:kreska pseudotaktowa	!	!LO:TX:t=P:problem:kreska pseudotaktowa	!	!LO:TX:t=P:problem:kreska pseudotaktowa	!
1F\	.	-lus	1F\	-lus	1A\	-lus	1c\	-lus	1fny\	-lus
=53-	=53-	=53-	=53-	=53-	=53-	=53-	=53-	=53-	=53-	=53-
!LO:TX:t=P:problem:kreska pseudotaktowa	!	!	!LO:LB:g=original	!	!	!	!LO:LB:g=original	!	!	!
0.C/	.	D.	1.C/	D(o-	1.G/	do-	1.c\	Do-	1.e\	D(o-
.	.	.	2C/	-mi)-	2G/	-mi-	2c\	-mi-	2e\	-mi)-
.	.	.	2C/	-nus	2G/	-nus	2c\	-nus	2e\	-nus
!	!	!	!LO:TX:t=P:problem:kreska pseudotaktowa	!	!LO:TX:t=P:problem:kreska pseudotaktowa	!	!LO:TX:t=P:problem:kreska pseudotaktowa	!	!LO:TX:t=P:problem:kreska pseudotaktowa	!
.	.	.	2C/	tu	2G/	tu	2c\	tu	2e\	tu
=54-	=54-	=54-	=54-	=54-	=54-	=54-	=54-	=54-	=54-	=54-
1FF/	.	so-	1F\	So-	1A\	so-	1c\	so-	1f\	So-
1C/	.	-l(us)	1C/	-lus	1G/	-lus	1c\	lus	1e\	-lus
!LO:TX:t=P:problem:kreska pseudotaktowa	!	!	!LO:TX:t=P:problem:kreska pseudotaktowa	!	!LO:TX:t=P:problem:kreska pseudotaktowa	!	!LO:TX:t=P:problem:kreska pseudotaktowa	!	!LO:TX:t=P:problem:kreska pseudotaktowa	!
1D\	.	alt.	1D\	al-	1F/	al-	1A\	al-	1d\	Al-
=55-	=55-	=55-	=55-	=55-	=55-	=55-	=55-	=55-	=55-	=55-
!	!	!	!	!	!	!	!	!	!LO:TX:t=P:problem:# above	!
0.AA/	.	.	1.AA/	-ti-	1.E/	-tiſ-	1.A\	-tiſ-	1.c#X\	-tis-
.	.	.	2AA/	-ßi-	2E/	-si-	2A/	-si-	2c#/	-si-
!	!	!	!LO:TX:t=P:problem:kreska pseudotaktowa	!	!LO:TX:t=P:problem:kreska pseudotaktowa	!	!LO:TX:t=P:problem:kreska pseudotaktowa	!	!LO:TX:t=P:problem:# above	!
!	!	!	!	!	!	!	!	!	!LO:TX:t=P:problem:kreska pseudotaktowa	!
.	.	.	1AA/	-m(us)	1E/	-mus	1A\	-mus	1c#X\	-mus
=56-	=56-	=56-	=56-	=56-	=56-	=56-	=56-	=56-	=56-	=56-
1.A\	.	Je-	1.A\	Je-	0A\	Je-	2c#X\	Je-	1.e\	Je-
.	.	.	.	.	.	.	2B\	.	.	.
.	.	.	.	.	.	.	2c#\	.	.	.
4G\	.	.	4G\	.	.	.	2d\	.	2f\	.
4F\	.	.	4F\	.	.	.	.	.	.	.
!LO:SIC:a:v:custos:F	!	!	!	!	!	!	!	!	!	!
!LO:TX:t=P:problem:kreska pseudotaktowa	!	!	!LO:TX:t=P:problem:kreska pseudotaktowa	!	!	!	!LO:TX:t=P:problem:kreska pseudotaktowa	!	!LO:TX:t=P:problem:kreska pseudotaktowa	!
1E\	.	.	1E\	.	1G/	-su	1e\	.	1g\	.
=57-	=57-	=57-	=57-	=57-	=57-	=57-	=57-	=57-	=57-	=57-
*	*	*	*	*	*lig	*	*	*	*	*
!LO:LB:g=original	!	!	!	!	!	!	!	!	!	!
1F\	.	-su	1F\	-su	1A\	Chri-	1d\	-su	1f\	-su
*	*	*	*lig	*	*	*	*	*	*	*
!	!	!	!	!	!LO:N:acc=-	!	!	!	!	!
*	*	*	*	*	*	*	*lig	*	*	*
!	!	!	!	!	!	!	!	!	!LO:TX:t=P:problem:kreska pseudotaktowa	!
1G\	.	x-	1G\	Chri-	1Bn\	.	1d\	Chri-	0e\	Chri-
*	*	*	*	*	*Xlig	*	*	*	*	*
!	!	!	!	!	!LO:SIC:a:v:custos:A	!	!LO:TX:t=P:problem:# below	!	!	!
!	!	!	!	!	!LO:TX:t=P:problem:kreska pseudotaktowa	!	!	!	!	!
1A\	.	te.	1A\	.	1A\	.	1c#X\	.	.	.
*	*	*	*Xlig	*	*	*	*Xlig	*	*	*
=58-	=58-	=58-	=58-	=58-	=58-	=58-	=58-	=58-	=58-	=58-
!LO:TX:t=P:problem:kreska pseudotaktowa	!	!	!LO:TX:t=P:problem:kreska pseudotaktowa	!	!LO:TX:t=P:problem:kreska pseudotaktowa	!	!LO:TX:t=P:problem:kreska pseudotaktowa	!	!LO:TX:t=P:problem:kreska pseudotaktowa	!
!	!	!	!	!	!LO:LB:g=original	!	!	!	!	!
0.D\,<	.	.	0.D\	-ſte	0.A\	-ste	0.d\	-ste	0.f#X\	-ſte
=59-	=59-	=59-	=59-	=59-	=59-	=59-	=59-	=59-	=59-	=59-
1D\	.	Cum	1D\	Cum	1A\	Cum	1d\	Cum	1f#X\	c(um)
1BB/	.	.	1BB/	San-	1Bn\	San-	1d\	San-	1g#X\	San-
!	!	!	!	!	!LO:TX:t=P:problem:kreska pseudotaktowa	!	!LO:TX:t=P:problem:kreska pseudotaktowa	!	!LO:SIC:a:v:custos:a	!
!	!	!	!	!	!	!	!	!	!LO:TX:t=P:problem:kreska pseudotaktowa	!
1AA/	.	-S.	1AA/	-cto	1c\	-cto	1e\	-cto	1a\	-cto
=60-	=60-	=60-	=60-	=60-	=60-	=60-	=60-	=60-	=60-	=60-
!	!	!	!	!	!	!	!	!	!LO:LB:g=original	!
0.E\	.	Sp.	0E\	Sp(i-	1c\	ſpi-	0e\	spi-	(1a\	Spi-
!	!	!	!	!	!	!	!	!	!LO:TX:t=P:problem:# above	!
.	.	.	.	.	2B\	.	.	.	2g#X\)	.
!	!	!	!	!	!	!	!	!	!LO:TX:t=P:problem:# above	!
.	.	.	.	.	2A\	.	.	.	2f#X\	.
!	!	!	!LO:TX:t=P:problem:kreska pseudotaktowa	!	!	!	!LO:TX:t=P:problem:kreska pseudotaktowa	!	!	!
.	.	.	1E\	-ri-	2B\	.	1e\	-ri-	2.g#\	.
!	!	!	!	!	!LO:TX:t=P:problem:kreska pseudotaktowa	!	!	!	!	!
.	.	.	.	.	2B\	-ri-	.	.	.	.
!	!	!	!	!	!	!	!	!	!LO:TX:t=P:problem:kreska pseudotaktowa	!
.	.	.	.	.	.	.	.	.	4g#\	-ri-
=61-	=61-	=61-	=61-	=61-	=61-	=61-	=61-	=61-	=61-	=61-
!LO:TX:t=P:problem:kreska pseudotaktowa	!	!	!	!	!	!	!	!	!	!
0.AA/	.	in	0AA/	-t)u	0c\	-tu	0e\	-tu	0a\	-tu
!	!	!	!LO:TX:t=P:problem:kreska pseudotaktowa	!	!LO:TX:t=P:problem:kreska pseudotaktowa	!	!LO:TX:t=P:problem:kreska pseudotaktowa	!	!LO:TX:t=P:problem:kreska pseudotaktowa	!
!	!	!	!	!	!	!	!LO:SIC:v:a:t=custos c	!	!	!
.	.	.	1AA/	in	1c\	in	1e\	in	1a\	in
=62-	=62-	=62-	=62-	=62-	=62-	=62-	=62-	=62-	=62-	=62-
!LO:TX:t=P:problem:kreska pseudotaktowa	!	!	!	!	!	!	!LO:LB:g=original	!	!	!
0.AA/	.	gl.	1.AA/	glo-	1.A\	glo-	1.c#X\	glo-	1.e\	glo-
.	.	.	2AA/	-ri-	2A/	-ri-	2c#\	-ri-	2e\	-ri-
!	!	!	!LO:TX:t=P:problem:kreska pseudotaktowa	!	!LO:TX:t=P:problem:kreska pseudotaktowa	!	!LO:TX:t=P:problem:kreska pseudotaktowa	!	!LO:TX:t=P:problem:kreska pseudotaktowa	!
.	.	.	1AA/	-a	1A\	-a	1c#\	-a	1e\	-a
=63-	=63-	=63-	=63-	=63-	=63-	=63-	=63-	=63-	=63-	=63-
!	!	!	!	!	!	!	!	!	!LO:N:acc=-	!
!	!	!	!	!	!	!	!	!	!LO:TX:t=P:problem:♭ above	!
0.D\	.	Dei	0D\	De-	0A\	De-	0d\	De-	0fn\	De-
!	!	!	!	!	!LO:TX:t=P:problem:kreska pseudotaktowa	!	!LO:TX:t=P:problem:kreska pseudotaktowa	!	!LO:TX:t=P:problem:kreska pseudotaktowa	!
.	.	-i	1D\	-i	1A\	-i	1d\	-i	1f\	-i
=64-	=64-	=64-	=64-	=64-	=64-	=64-	=64-	=64-	=64-	=64-
!LO:TX:t=P:problem:kreska pseudotaktowa	!	!	!LO:SIC:a:v:custos:FF	!	!LO:TX:t=P:problem:kreska pseudotaktowa	!	!	!	!	!
0.C/	.	P.	0.C/	Pa-	0.c\	Pa-	2e\	Pa-	2gny\	Pa-
.	.	.	.	.	.	.	2d\	.	(2f\	.
.	.	.	.	.	.	.	2e\	.	2g\	.
.	.	.	.	.	.	.	2f\	.	2a\	.
!	!	!	!	!	!	!	!LO:TX:t=P:problem:kreska pseudotaktowa	!	!LO:TX:t=P:problem:kreska pseudotaktowa	!
.	.	.	.	.	.	.	1e\	.	1g\)	.
=65-	=65-	=65-	=65-	=65-	=65-	=65-	=65-	=65-	=65-	=65-
!	!	!	!LO:LB:g=original	!	!	!	!	!	!	!
0.FF/	.	in	0FF/	-tris	0c\,<	-tris	1f\	.	1a\	.
.	.	.	.	.	.	.	1f\,	-tris	1a\,<	-tris
!	!	!	!LO:TX:t=P:problem:kreska pseudotaktowa	!	!LO:TX:t=P:problem:kreska pseudotaktowa	!	!LO:TX:t=P:problem:kreska pseudotaktowa	!	!LO:TX:t=P:problem:kreska pseudotaktowa	!
.	.	.	1FF/	in	1c\	in	1f\	in	1a\,<	in
=66-	=66-	=66-	=66-	=66-	=66-	=66-	=66-	=66-	=66-	=66-
!LO:TX:t=P:problem:kreska pseudotaktowa	!	!	!	!	!	!	!	!	!	!
0.FF/	.	gl.	1.FF/	glo-	1.c\	glo-	1.f\	glo-	1.a\	glo-
.	.	.	2FF/	-ri-	2c\	-ri-	2f\	-ri-	2a\	-ri-
!	!	!	!	!	!LO:SIC:a:v:t=custos c	!	!	!	!	!
!	!	!	!LO:TX:t=P:problem:kreska pseudotaktowa	!	!LO:TX:t=P:problem:kreska pseudotaktowa	!	!LO:TX:t=P:problem:kreska pseudotaktowa	!	!	!
.	.	.	1FF/	-a	1c\	-a	1f\	-a	1a\	-a
=67-	=67-	=67-	=67-	=67-	=67-	=67-	=67-	=67-	=67-	=67-
!	!	!	!	!	!LO:LB:g=original	!	!	!	!	!
!	!	!	!	!	!LO:TX:t=P:problem:kreska pseudotaktowa	!	!	!	!LO:TX:t=P:problem:kreska pseudotaktowa	!
0.C/	.	De-	0.C/	De-	0.c\	De-	0e\	De-	0.g\	De-
!	!	!	!	!	!	!	!LO:TX:t=P:problem:kreska pseudotaktowa	!	!	!
.	.	.	.	.	.	.	1e\	-i	.	.
=68-	=68-	=68-	=68-	=68-	=68-	=68-	=68-	=68-	=68-	=68-
*	*	*	*	*	*col	*	*	*	*	*
1D\	.	-i	1D\	-i	1A\	-i	0d\	Pa-	1f\	-i
!	!	!	!LO:TX:t=P:problem:kreska pseudotaktowa	!	!LO:TX:t=P:problem:kreska pseudotaktowa	!	!	!	!	!
0AA/	.	Pa-	0AA/	Pa-	0A\	Pa-	.	.	0e\	Pa-
.	.	.	.	.	.	.	1c#X\	.	.	.
*	*	*	*	*	*Xcol	*	*	*	*	*
=69-	=69-	=69-	=69-	=69-	=69-	=69-	=69-	=69-	=69-	=69-
!	!	!	!	!	!LO:TX:t=P:problem:kreska pseudotaktowa	!	!LO:TX:t=P:problem:kreska pseudotaktowa	!	!LO:SIC:a:v:custos:e	!
!LO:TX:t=P:problem:kreska pseudotaktowa	!	!	!	!	!	!	!	!	!LO:TX:t=P:problem:kreska pseudotaktowa	!
0.D\,<	.	-tris	0.D\	-tris	0.A\	-tris	0.d\	-tris	0.f#X\	-tris
=70-	=70-	=70-	=70-	=70-	=70-	=70-	=70-	=70-	=70-	=70-
!	!	!	!	!	!	!	!LO:TX:t=P:problem:# above	!	!LO:LB:g=original	!
0.AA/	.	Am.	0AA/	A-	0A\	A-	2c#X\	A-	2e\	A-
!	!	!	!	!	!	!	!LO:SIC:a:v:custos:c	!	!	!
.	.	.	.	.	.	.	2B\	.	2d\	.
!	!	!	!	!	!	!	!LO:PB:g=original	!	!	!
.	.	.	.	.	.	.	2c#X\	.	2e\	.
.	.	.	.	.	.	.	2d\	.	2f\	.
!	!	!	!LO:TX:t=P:problem:kreska pseudotaktowa	!	!LO:TX:t=P:problem:kreska pseudotaktowa	!	!LO:TX:t=P:problem:# above	!	!	!
!	!	!	!	!	!	!	!LO:TX:t=P:problem:kreska pseudotaktowa	!	!	!
.	.	.	1AA/	-men	1A\	-men	1c#X\	.	2e\	.
!	!	!	!	!	!	!	!	!	!LO:TX:t=P:problem:kreska pseudotaktowa	!
.	.	.	.	.	.	.	.	.	2e\	-men
=71-	=71-	=71-	=71-	=71-	=71-	=71-	=71-	=71-	=71-	=71-
*	*	*ij	*	*ij	*	*ij	*	*	*	*ij
0.D\	.	A-	0D\	A-	0A\	A-	2d\	.	2f\	A-
.	.	.	.	.	.	.	2cny\	.	2e\	.
.	.	.	.	.	.	.	2d\	.	2f\	.
.	.	.	.	.	.	.	2e\	.	2g\	.
!	!	!	!	!	!LO:TX:t=P:problem:kreska pseudotaktowa	!	!LO:TX:t=P:problem:kreska pseudotaktowa	!	!	!
.	.	.	1D\	-men	1A\	-men	1d\	.	2f\	.
!	!	!	!	!	!	!	!	!	!LO:TX:t=P:problem:kreska pseudotaktowa	!
.	.	.	.	.	.	.	.	.	2f\	-men
=72-	=72-	=72-	=72-	=72-	=72-	=72-	=72-	=72-	=72-	=72-
0.C/	.	-men	0.C/	A-	0.c\	A-	2e\	.	2g\	A-
.	.	.	.	.	.	.	2f\	.	2a\	.
.	.	.	.	.	.	.	2e\	.	2g\	.
.	.	.	.	.	.	.	2f\	.	2a\	.
.	.	.	.	.	.	.	2g\	.	2b-X\	.
!	!	!	!	!	!	!	!LO:TX:t=P:problem:kreska pseudotaktowa	!	!LO:TX:t=P:problem:kreska pseudotaktowa	!
.	.	.	.	.	.	.	2e\	.	2g\	.
*	*	*Xij	*	*	*	*	*	*	*	*
=73-	=73-	=73-	=73-	=73-	=73-	=73-	=73-	=73-	=73-	=73-
!LO:SIC:a:v:custos:FF	!	!	!	!	!LO:TX:t=P:problem:kreska pseudotaktowa	!	!	!	!	!
0.FF/	.	-men	0.FF/	-men	0.c\	-men	0f\	.	0a\	.
!	!	!	!	!	!	!	!LO:TX:t=P:problem:kreska pseudotaktowa	!	!LO:TX:t=P:problem:kreska pseudotaktowa	!
.	.	.	.	.	.	.	1f\	.	1a\	-men
*	*	*	*	*	*	*	*	*	*	*Xij
=74-	=74-	=74-	=74-	=74-	=74-	=74-	=74-	=74-	=74-	=74-
!LO:LB:g=original	!	!	!	!	!	!	!	!	!	!
!LO:TX:t=P:problem:kreska pseudotaktowa	!	!	!	!	!	!	!	!	!	!
0.FF/	.	A-	0FF/	A-	0c\	A-	0f\	-men	0a\	A-
!	!	!	!LO:TX:t=P:problem:kreska pseudotaktowa	!	!	!	!LO:TX:t=P:problem:kreska pseudotaktowa	!	!	!
.	.	-men	1FF/	-men	1c\	.	1c\	.	1a\	-men
*	*	*	*	*Xij	*	*	*	*	*	*
=75-	=75-	=75-	=75-	=75-	=75-	=75-	=75-	=75-	=75-	=75-
!	!	!	!	!	!	!	!LO:TX:t=P:problem:kreska pseudotaktowa	!	!	!
*	*	*ij	*	*	*	*	*	*	*	*
0FF/	.	A-	0FF/	A-	0A\	.	0.c\	.	0f\	.
!LO:TX:t=P:problem:kreska pseudotaktowa	!	!	!	!	!LO:TX:t=P:problem:kreska pseudotaktowa	!	!	!	!LO:TX:t=P:problem:kreska pseudotaktowa	!
1C/	.	-men	1C/	.	1G/	.	.	.	1e\	.
=76-	=76-	=76-	=76-	=76-	=76-	=76-	=76-	=76-	=76-	=76-
*	*	*Xij	*col	*	*col	*	*	*	*	*ij
1D\	.	a-	1D\	.	1F/	.	1A\	.	0d\	A-
!LO:TX:t=P:problem:kreska pseudotaktowa	!	!	!	!	!	!	!	!	!	!
0AA/	.	.	0AA/	.	0E/	.	0A\	.	.	.
!	!	!	!	!	!	!	!	!	!LO:SIC:a:v:custos:d	!
!	!	!	!	!	!	!	!	!	!LO:TX:t=P:problem:kreska pseudotaktowa	!
.	.	.	.	.	.	.	.	.	1c#X\	-men
*	*	*	*Xcol	*	*Xcol	*	*	*	*	*
=77-	=77-	=77-	=77-	=77-	=77-	=77-	=77-	=77-	=77-	=77-
*M2/1	*	*	*M2/1	*	*M2/1	*	*M2/1	*	*M2/1	*
*met(c)	*	*	*met(c)	*	*met(c)	*	*met(c)	*	*met(c)	*
!	!	!	!	!	!	!	!	!	!LO:LB:g=original	!
4.D,</	.	-men	4D,</	-men	2F/	-men	2A/	A-	2d\	A-
.	.	.	4D/	A-	.	.	.	.	.	.
!	!	!	!	!	!LO:TX:t=P:problem:kreska pseudotaktowa	!	!	!	!LO:TX:t=P:problem:kreska pseudotaktowa	!
8D/	.	A-	.	.	.	.	.	.	.	.
4A\	.	.	4A\	.	2rF	.	4A/	.	2r	.
!	!	!	!	!	!	!	!LO:SIC:a:v:custos:B	!	!	!
!	!	!	!	!	!	!	!LO:TX:t=P:problem:kreska pseudotaktowa	!	!	!
8E\L	.	.	8E\L	.	.	.	4e\	.	.	.
!LO:TX:t=P:problem:kreska pseudotaktowa	!	!	!LO:TX:t=P:problem:kreska pseudotaktowa	!	!	!	!	!	!	!
8F\J	.	.	8F\J	.	.	.	.	.	.	.
!	!	!	!	!	!	!	!LO:LB:g=original	!	!	!
4G\	.	.	4G\	.	2r	.	8B\L	.	4d\	.
.	.	.	.	.	.	.	8c\J	.	.	.
8F\L	.	.	8F\L	.	.	.	4d\	.	4a\	.
!	!	!	!LO:SIC:a:v:custos:A	!	!	!	!	!	!	!
8G\J	.	.	8G\J	.	.	.	.	.	.	.
!LO:LB:g=original	!	!	!LO:LB:g=original	!	!	!	!	!	!	!
4A\	.	.	4A\	.	4A/	A-	4c\	.	4e\	.
!LO:TX:t=P:problem:kreska pseudotaktowa	!	!	!LO:TX:t=P:problem:kreska pseudotaktowa	!	!LO:TX:t=P:problem:kreska pseudotaktowa	!	!LO:TX:t=P:problem:kreska pseudotaktowa	!	!	!
4E\	.	.	4E\	.	4e\	.	2B\	.	2g\	.
=78-	=78-	=78-	=78-	=78-	=78-	=78-	=78-	=78-	=78-	=78-
4G\	.	.	4G\	.	4B\	.	.	.	.	.
!	!	!	!	!	!LO:SIC:a:v:custos:c	!	!	!	!	!
4F\	.	.	4F\	.	2d\	.	4A/	.	4d\	.
4E\	.	.	4E\	.	.	.	4G#X/	.	4.e\	.
!	!	!	!	!	!LO:PB:g=original	!	!	!	!	!
!LO:TX:t=P:problem:kreska pseudotaktowa	!	!	!LO:TX:t=P:problem:kreska pseudotaktowa	!	!LO:TX:t=P:problem:kreska pseudotaktowa	!	!LO:TX:t=P:problem:kreska pseudotaktowa	!	!	!
4AA/	.	-men	4AA/	.	4c\	.	4A/	.	.	.
!	!	!	!	!	!	!	!	!	!LO:TX:t=P:problem:kreska pseudotaktowa	!
.	.	.	.	.	.	.	.	.	8e\	.
*	*	*ij	*	*	*	*	*	*	*	*
1EE\	.	A-	1E\	.	4B\	.	4B\	.	1e\	.
.	.	.	.	.	2A/	.	4c\	.	.	.
!	!	!	!	!	!	!	!LO:TX:t=P:problem:kreska pseudotaktowa	!	!	!
.	.	.	.	.	.	.	2B\	.	.	.
!	!	!	!	!	!LO:TX:t=P:problem:kreska pseudotaktowa	!	!	!	!	!
.	.	.	.	.	4G#X/	.	.	.	.	.
=79-	=79-	=79-	=79-	=79-	=79-	=79-	=79-	=79-	=79-	=79-
0AA/;	.	-men	0AA/;	-men	0A\	-men	0c#X\	-men.	0e\	-men
*	*	*Xij	*	*	*	*Xij	*	*	*	*Xij
==	==	==	==	==	==	==	==	==	==	==
*-	*-	*-	*-	*-	*-	*-	*-	*-	*-	*-
!!!system-decoration: [(s1,s2,s3,s4)][(s5)]
!!!RDF**kern: > = above
!!!RDF**kern: < = below
!!!EED: Andrzej Borzym
!!!EST: 2021-04-07
!!!ENC:Kamil Watkowski
!!!END:2021-03-20
